X: 39190
T: Swinging On The Gate
R: reel
M: 4/4
K: Gmajor
|e2f2|:"G"gedB G2AB|"Am"cABG AGEG|"G"DGBd g2ge|"D"fgag fdef|
"G"gedB G2AB|"Am"cABG AGEG|cABG AGEG|"D"DGGF "G"GABd:|
|:"G"~gfga bagf|"Em"gfed cBAG|"Am"EAAB cBAG|(3EFG AB "D"cdef|
"G"~gfga bagf|"Em"gfed cBAG|"C"cABG "Am"AGEG|1 "D"DGGF "G"GABd:|2 "D"DGGF "G"G4||

